X: 10393
T: Donald Blue
R: reel
M: 4/4
K: Dmajor
AB|:dBAF A2FA|dBAF EFD2|dBAF A2dc|1 B2 BA B2AB:|2 B4 B2dB||
|:ABde f2ef|gefd edBd|ABde fded|1 B2 BA B2dB:|2 B4 B2||

